X:27
T:John of Paris
M:6/8
K:G
d|"G"B2B BAB|d2B BAB|"C"c2e g2e|"G"d2B BAB|"D7"c2A AGA|"G"B2G "Em"GAB|
"A7"A2B A2B|"D"A2d "D7"d^c=c|"G"B2B BAB|d2B BAB|"C"c2e g2e|"G"d2B BAB|
"D7"c2A AGA|"G"B2G G2F|"C"Eed "D7"cBA|"G"G3 B2||c|dcd Bcd|"C"e2f g2a|
"Em"b2a "A7"gfe|"D7"d2c "G"Bcd|"C"e2e ecA|"G"d2d dBG|"D7"c2A \
"G"B2G|"D"FGF "D7"Ddc|"G"B2B BAB|
d2B BAB|"C"c2e g2e|"G"d2B BAB|"D7"c2A AGA|"G"B2G G2F|"C"Eed "D7"cBA|"G"G3 B2|]

